!!!COM: Anon.
!!!OTL: Quod Promisit Ab Eterno
!!!SCA: Folio 300'-301
!!!YOR: from 'Thirty-Five Conductus for Two and Three Voices', pp.85-88
!!!YOR: edited by Janet Knapp, Collegium Musicum No. 6, Yale University (1965)
!!!YOR: from the School of Notre Dame; circa 1170-1240
!!!YOO: Yale University
!!!YOY: 1965
**kern	**kern
*M6/8	*M6/8
=1	=1
4.G	4.g
4G	4d
8r	8r
=2	=2
4A	4d
8Bn	8e
4c	4c
8r	8r
=3	=3
4A	4e
8F	8f
4G	4d
8D	8d
=4	=4
4F	8c
.	8Bn
8E	8c
4D	4d
8r	8r
=5	=5
4F	4f
8A	8e
4G	4d
8A	8c
=6	=6
4F	4B-
8G	8A
4G	8G
.	8G
8r	8A
=7	=7
4.A	2.F
4A	.
8G	.
=8	=8
2.F	2.A
=9	=9
4.G	4.G
4.r	4.r
=10	=10
4.B-	4.f
4.A	8e
.	8d
.	8c
=11	=11
4.G	4.G
4.r	4.r
=12	=12
4d	4G
8d	8B-
4c	4A
8c	8c
=13	=13
4B-	4B-
8A	8d
4G	4c
8G	8B-
=14	=14
4F	8A
.	8G
8A	8c
4G	4d
8r	8r
=15	=15
4.F	4f
.	8e
8A	8d
8A	8e
8G	8f
=16	=16
[2.G	4a
.	8g
.	4g
.	8f
=17	=17
4.G]	4.g
4.r	4.r
=18	=18
4B-	4f
8A	8e
4B-	4d
8c	8c
=19	=19
4B-	4B-
8c	8A
4d	4G
8r	8r
=20	=20
4d	4G
8B-	8G
4c	4F
8G	8G
=21	=21
4B-	4B-
8c	8A
4d	4G
8r	8r
=22	=22
4d	4G
8d	8B-
4c	4A
8B-	8G
=23	=23
8A	8A
8A	8A
8G	8B-
4F	4c
8r	8r
=24	=24
4.D	8A
.	8A
.	8G
4.F	4.F
=25	=25
4.G	8G
.	8G
.	8A
4F	4c
8r	8r
=26	=26
4.G	4.g
4.B-	4.f
=27	=27
4.A	8e
.	8d
.	8c
4B-	4B-
8r	8r
=28	=28
4.c	8c
.	8c
.	8d
4.B-	4.f
=29	=29
4.A	4e
.	8d
4.G	4d
.	8c
=30	=30
4B-	4f
8A	8g
4.G	4.d
=31	=31
4.F	8f
.	8e
.	8d
4.F	4.c
=32	=32
4.G	4.d
4.r	4.r
=33	=33
4G	4d
8B-	8d
4d	4d
8B-	8d
=34	=34
4c	4c
8G	8d
4B-	4B-
8r	8r
=35	=35
4d	4d
8B-	8f
4c	4c
8G	8d
=36	=36
4B-	4B-
8A	8c
4G	4d
8r	8r
=37	=37
4d	4G
8d	8B-
4d	4d
8d	8B-
=38	=38
4c	4c
8d	8G
4B-	4B-
8r	8r
=39	=39
4d	4d
8f	8B-
4c	4c
8d	8G
=40	=40
4B-	4B-
8c	8A
4d	4G
8r	8r
=41	=41
4d	4B-
8d	8B-
4c	4A
8B-	8G
=42	=42
4.c	4.F
4A	4A
8r	8r
=43	=43
4c	4c
8c	8c
4G	4d
8F	8c
=44	=44
4B-	4B-
8A	8A
4B-	4G
8c	8A
=45	=45
4.A	4.A
4.r	4.r
=46	=46
2.F	4B-
.	8A
.	8G
.	8G
.	8A
=47	=47
4.G	4.G
4.r	4.r
!! New Section
=48	=48
4.G	4.g
4.B-	4.f
=49	=49
8A	8e
8A	8e
8G	8d
4F	4.c
8r	.
=50	=50
4.G	4.d
4.E	4e
.	8d
=51	=51
4F	4f
8E	8e
4G	4d
8r	8r
=52	=52
4G	4d
8r	8r
4A	4c
8A	8c
=53	=53
4G	4d
8A	8c
4B-	4B-
8c	8A
=54	=54
4B-	4B-
8r	8r
4G	4d
8r	8r
=55	=55
4A	8c
.	8B-
8B-	8c
4G	8d
.	8d
8G	8c
=56	=56
4.F	4.A
4.F	4.A
=57	=57
4.G	4.G
4.r	4.r
=58	=58
4.g	4.g
4g	4g
8f	8f
=59	=59
4d	4f
8d	8g
4.c	4g
.	8f
=60	=60
4B-	4f
8A	8e
4.B-	8d
.	8e
.	8d
=61	=61
4.c	4.c
4.r	4.r
=62	=62
4.B-	4.B-
4B-	4B-
8c	8A
=63	=63
4.d	4.G
4d	4G
8c	8A
=64	=64
4B-	4B-
8A	8A
8G	4.G
8A	.
8B-	.
=65	=65
4.c	4.F
4.r	4.r
=66	=66
4B-	4f
8A	8e
4.B-	4.d
=67	=67
4.c	4.c
4.r	4.r
=68	=68
4f	4B-
8e	8c
4d	4d
8d	8d
=69	=69
4c	4e
8B-	8d
4c	4c
8c	8c
=70	=70
4G	4d
8A	8c
8B-	8B-
8B-	8B-
8A	8c
=71	=71
4.G	4.d
4.r	4.r
=72	=72
4.d	4.g
4.d	8f
.	8g
.	8f
=73	=73
4d	4.d
8e	.
4.c	4.e
=74	=74
4.d	4.d
4.r	4.r
=75	=75
4.F	4.f
4G	4e-
8r	8d
=76	=76
4.B-	4.e-
4.c	4d
.	8c
=77	=77
4.B-	4f
.	8g
4A	4d
8A	8c
=78	=78
4.G	4.d
4.r	4.r
=79	=79
4G	4g
8B-	8f
4d	4d
8d	8d
=80	=80
4c	4c
8d	8A
4B-	4B-
8r	8r
=81	=81
4c	4c
8c	8B-
4c	4A
8B-	8G
=82	=82
4A	4B-
8G	8c
4F	4A
8G	8A
=83	=83
4.G	4.G
4.r	4.r
=84	=84
4G	4d
8B-	8B-
4B-	4G
8A	8A
=85	=85
4G	4B-
8F	8c
4A	4A
8A	8F
=86	=86
4r	4r
8G	8d
4B-	4B-
8B-	8G
=87	=87
4A	4A
8G	8B-
4F	8c
.	8B-
8G	8A
=88	=88
4.G	4.G
4.r	4.r
=89	=89
8G	8d
8G	8d
8A	8c
8B-	8B-
8B-	8A
8c	8G
=90	=90
8A	8c
8A	8c
8G	8B-
4.F	4.A
=91	=91
4.F	4.A
4.r	4.r
=92	=92
8A	8A
8A	8A
8G	8c
8B-	8B-
8B-	8B-
8A	8A
=93	=93
8G	8B-
8A	8c
8F	8A
4.F	4.A
=94	=94
4.G	4.G
4.r	4.r
!! New Section
=95	=95
2.B-	2.d
=96	=96
2.A	4.c
.	4c
.	8B-
=97	=97
2.G	8d
.	8e
.	8d
.	4.B-
=98	=98
4.F	4.c
4.r	4.r
=99	=99
4F	4f
8F	8e
4.G	8d
.	8d
.	8c
=100	=100
2.A	4c
.	8d
.	8e
.	8e
.	8d
=101	=101
2.A	16e
.	16d
.	8c
.	8B-
.	4.A
=102	=102
2.F	8c
.	8B-
.	8A
.	4.G
=103	=103
4.D	4.A
4.r	4.r
=104	=104
2.F	4.f
.	4f
.	8e
=105	=105
2.G	4.d
.	4d
.	8c
=106	=106
2.B-	4B-
.	8A
.	4.G
=107	=107
4.c	4.F
4.r	4.r
=108	=108
4.c	4F
.	8F
4c	4G
8B-	8F
=109	=109
4A	4F
8G	8G
4B-	4B-
8A	8A
=110	=110
4G	4B-
8G	8c
4A	4A
8G	8G
=111	=111
4F	4A
8F	8B-
4G	8G
.	8F
8F	8G
=112	=112
4.D	4.A
4.r	4.r
=113	=113
4F	4A
8r	8r
4G	4B-
8F	8A
=114	=114
4B-	4G
8A	8F
4G	4G
8G	8A
=115	=115
4A	4F
8G	8G
4F	4A
8r	8B-
=116	=116
4F	4A
8r	8r
4G	4G
8F	8F
=117	=117
4B-	4B-
8A	8c
4G	8d
.	8d
8A	8c
=118	=118
4.F	4.A
4.F	4.A
=119	=119
4.G	4.G
4.r	4.r
=120	=120
4g	4G
8f	8F
4e	4A
8c	8B-
=121	=121
4.d	4.G
4d	4.G
8e	.
=122	=122
4c	4c
8Bn	8d
4A	4e
8B	8d
=123	=123
4.c	4.c
4c	4c
8d	8r
=124	=124
4Bn	4Bn
8A	8c
4G	4d
8A	8c
=125	=125
4.Bn	4.Bn
4B	4B
8c	8c
=126	=126
4d	4A
8Bn	8G
4d	4A
8e	8Bn
=127	=127
4.c	4.G
4c	4G
8d	8r
=128	=128
4e	4e
8d	8d
4e	4c
8f	8Bn
=129	=129
4.d	4.d
4d	4d
8e	8e
=130	=130
4.G	{24g
.	24f
.	24e
.	16d
.	16c
.	16B-
.	16A}
4G	4.G
8A	.
=131	=131
4B-	4B-
8A	8c
4.G	8d
.	8c
.	8B-
=132	=132
2.G	4.A
.	4.B-
=133	=133
[2.F	8c
.	8B-
.	8c
.	4d
.	8d
=134	=134
4.F]	4.c
4.r	4.r
=135	=135
4.B-	4.f
4.c	4g
.	8f
=136	=136
4.d	4d
.	8c
4G	4d
8F	8c
=137	=137
4B-	4B-
8c	8c
4A	8A
.	8G
8A	8c
=138	=138
4.G	4.d
4.r	4.r
=139	=139
4g	4G
8f	8F
4e	4A
8g	8B
=140	=140
4.d	4.G
4d	4G
8e	8r
=141	=141
4g	4G
8f	8F
8e	4G
8d	.
8B	8r
=142	=142
4c	4G
8c	8A
4B	4B
8r	8r
=143	=143
4c	4G
8c	8A
4B	4B
8A	8A
=144	=144
4c	4G
8d	8A
4B	4B
8r	8r
=145	=145
4d	4G
8d	8A
4c	4c
8B	8B
=146	=146
4d	4A
8d	8A
4B	4B
8r	8r
=147	=147
4d	4G
8c	8F
4A	4A
8B	8B
=148	=148
4.G	4.d
4G	4d
8r	8r
=149	=149
4B	4B
8G	8d
4F	4c
8A	8d
=150	=150
4B	4B
8G	8d
4G	4d
8r	8r
=151	=151
4c	4f
8c	8f
8B	8e
8A	8d
8B	8e
=152	=152
4c	4c
8B	8B
4A	4c
8G	8d
=153	=153
4B	4B
8G	8d
4F	4c
8A	8d
=154	=154
4B	4B
8G	8d
4G	4d
8r	8r
=155	=155
4c	4f
8c	8f
8B	8e
8A	8d
8B	8e
=156	=156
4c	4c
8B	8B
4A	4c
8G	8d
=157	=157
4B	4B
8G	8d
4F	4c
8G	8d
=158	=158
4B	4B
8G	8d
4G	4d
8r	8r
=159	=159
4.c	4.c
4.B	4.d
=160	=160
4.A	4e
.	8d
4.B	4.B
=161	=161
4.c	4.A
4.B	4.G
=162	=162
4A	4A
8G	8B
4F	4c
8r	8r
=163	=163
4G	4.d
8A	.
4B	4.B
8c	.
=164	=164
4A	4.c
8G	.
4G	4B
8F	8r
=165	=165
4G	4.d
8A	.
4B	4.B
8c	.
=166	=166
4A	4.c
8G	.
4G	4.B
8F	.
=167	=167
4.F	4.A
4G	4G
8r	8r
=168	=168
4G	4d
8A	8d
4B	4B
8c	8A
=169	=169
4A	4c
8G	8d
4G	4B
8F	8A
=170	=170
4G	4d
8A	8d
4B	4B
8c	8A
=171	=171
4A	4c
8G	8c
4.G	4B
.	8B
=172	=172
4.F	4.A
4G	4G
8r	8r
=173	=173
[2.F	4A
.	8B
.	4c
.	8B
=174	=174
2.F]	4A
.	8B
.	4.A
=175	=175
4.G;	4.G;
4.r	4.r
==	==
*-	*-
!!!ENC: David Huron
!!!YEC: Copyright 1987, David Huron
!!!EEV: 1.0
